!!!COM: Palestrina, Giovanni Perluigi da
!!!OPR: Missa Aspice Domine
!!!OMD: Kyrie
!!!OTL: First Section
**kern	**kern	**kern	**kern	**kern
*Ibass	*Itenor	*Itenor	*Icalto	*Icant
!Bassus	!Tenor 2	!Tenor 1	!Altus	!Cantus
*clefF4	*clefGv2	*clefGv2	*clefG2	*clefG2
*k[]	*k[]	*k[]	*k[]	*k[]
*D:dor	*D:dor	*D:dor	*D:dor	*D:dor
*M4/2	*M4/2	*M4/2	*M4/2	*M4/2
=1	=1	=1	=1	=1
0r	0r	0r	0d	0r
=2	=2	=2	=2	=2
0r	0A	0r	1.a	0r
.	.	.	2a	.
=3	=3	=3	=3	=3
0r	1.d	0r	2.f	0r
.	.	.	4g	.
.	.	.	4a	.
.	.	.	4b-	.
.	2d	.	[2a	.
=4	=4	=4	=4	=4
0r	0c	0r	2a]	0r
.	.	.	4g	.
.	.	.	4f	.
.	.	.	1e	.
=5	=5	=5	=5	=5
0r	2.f	0r	2.d	0a
.	4e	.	4e	.
.	2d	.	4f	.
.	.	.	4g	.
.	2c	.	[2a	.
=6	=6	=6	=6	=6
0r	0B-	0d	2a]	1.dd
.	.	.	4g	.
.	.	.	4f	.
.	.	.	2g	.
.	.	.	[2f	2dd
=7	=7	=7	=7	=7
0r	0A	1.a	2f]	0cc
.	.	.	4e	.
.	.	.	4d	.
.	.	.	1e	.
.	.	2a	.	.
=8	=8	=8	=8	=8
0D	2.d	2.f	4d	0ff
.	.	.	4e	.
.	.	.	4f	.
.	4e	4e	4g	.
.	2f	1d	[1a	.
.	2d	.	.	.
=9	=9	=9	=9	=9
1.A	1e	2c	1a]	2.ee
.	.	4A	.	.
.	.	4B	.	4dd
.	1r	4c	2r	4cc
.	.	4d	.	4b
2A	.	4e	2a	[2cc
.	.	4c	.	.
=10	=10	=10	=10	=10
0F	0A	2.f	2a	2cc]
.	.	.	2.cc	2a
.	.	8e	.	.
.	.	8d	.	.
.	.	2c	.	1a
.	.	.	4b-	.
.	.	[2f	[2a	.
=11	=11	=11	=11	=11
0B-	1.d	2f]	2a]	0r
.	.	2e	4g	.
.	.	.	4f	.
.	.	1d	2g	.
.	2d	.	[2f	.
=12	=12	=12	=12	=12
1A	1c	0r	2f]	0a
.	.	.	2e	.
2D	1f	.	1d	.
[2d	.	.	.	.
=13	=13	=13	=13	=13
2d]	1.e	0A	2r	1.ee
4c	.	.	2a	.
4B	.	.	.	.
1c#	.	.	2a	.
.	[2a	.	2a	2ee
=14	=14	=14	=14	=14
1d	2a]	0d	2f	1.ff
.	2g	.	2g	.
[1D	[1f	.	1a	.
.	.	.	.	2ee
=15	=15	=15	=15	=15
1D]	1f]	1d	1a	1dd
[1A	[1e	[1c	2r	[1ee
.	.	.	2cc	.
=16	=16	=16	=16	=16
2A]	1e]	1c]	2a	1ee]
2A	.	.	2.cc	.
1F	1A	[1f	.	2r
.	.	.	4b-	.
.	.	.	4a	2ff
.	.	.	4g	.
=17	=17	=17	=17	=17
0B-	2r	2f]	1f	2dd
.	2f	2d	.	2.ff
.	2d	2.f	1r	.
.	.	.	.	4ee
.	[2f	.	.	2dd
.	.	4g	.	.
=18	=18	=18	=18	=18
0A	2f]	0a	2r	2cc
.	4e	.	2cc	2a
.	4d	.	.	.
.	2e	.	2a	2.cc
.	2c	.	2cc	.
.	.	.	.	4dd
=19	=19	=19	=19	=19
0r	2A	2r	2b-	2ee
.	1d	2f	4a	1ff
.	.	.	4g	.
.	.	2d	1a	.
.	2c	2e	.	[2ee
=20	=20	=20	=20	=20
0r	2B-	2f	1b-	4ee]
.	.	.	.	4dd
.	2G	2g	.	1dd
.	1A	1e	1a	.
.	.	.	.	2cc#
=21	=21	=21	=21	=21
2r	1d	2d	1f	0dd
2B-	.	2f	.	.
2G	2r	2g	1r	.
[2B-	2f	4d	.	.
.	.	4e	.	.
=22	=22	=22	=22	=22
2B-]	2d	4f	0r	0r
.	.	4g	.	.
4A	1f	1a	.	.
4G	.	.	.	.
2F	.	.	.	.
2G	4e	4g	.	.
.	4d	4f	.	.
=23	=23	=23	=23	=23
1.A	2.c	2.e	2r	1r
.	.	.	2cc	.
.	4d	4d	.	.
.	2e	4c	2a	2r
.	.	4A	.	.
2F	2A	2a	2cc	2ff
=24	=24	=24	=24	=24
2G	2B-	2g	2b-	2dd
2A	2c	4f	1a	1ff
.	.	4e	.	.
1B-	2d	1d	.	.
.	2G	.	2g	4ee
.	.	.	.	4dd
=25	=25	=25	=25	=25
0A	2r	1e	1a	2cc
.	1c	.	.	2a
.	.	2r	2r	2.cc
.	2A	[2c	2cc	.
.	.	.	.	4dd
=26	=26	=26	=26	=26
1.A	2.c	2c]	2a	1ee
.	.	2A	2.cc	.
.	4d	.	.	.
.	1e	1c	.	2a
.	.	.	4b	.
2A	.	.	[2a	[2ee
=27	=27	=27	=27	=27
1B-	0r	1d	2a]	4ee]
.	.	.	.	4dd
.	.	.	2g	1dd
1A	.	1e	1a	.
.	.	.	.	2cc#
=28	=28	=28	=28	=28
1D	2r	[0d	1a	[0dd
.	2f	.	.	.
2r	2d	.	1f	.
[2B-	4f	.	.	.
.	4e	.	.	.
=29	=29	=29	=29	=29
2B-]	4d	1d_	1.b-	1dd_
.	4c	.	.	.
2G	4B-	.	.	.
.	4A	.	.	.
2B-	2G	1d_	.	1dd_
2F	2A	.	2a	.
=30	=30	=30	=30	=30
0G	0B-	0d]	0g	0dd]
=31	=31	=31	=31	=31
[0D	[0A	[0d	[0f#	[0dd
=32	=32	=32	=32	=32
0D]	0A]	0d]	0f#]	0dd]
*-	*-	*-	*-	*-
!!!CDT: 1525/^1526/-1594/2/2
!!!OCY: Italia
!!!AGN: Mass (Parody)
!!!AST: renaissance, vocal
!!!ASW: Motet (Jacquet)
!!!PWK: Masses, Book 2
!!!RNB: Cadence finals: A
!!!YOR: Le Opere Complete, v. 4, p. 91
!!!YOO: Rome, Italy: Fratelli Scalera
!!!END: 1992//
!!!EED: John Miller
!!!YEC: Copyright 2000, John Miller
!!!YEN: United States of America
!!!YEM: Rights to all derivative electronic formats reserved.
!!!YEM: Refer to licensing agreement for further details.
!!!YEM: This file must be accompanied by the licensing agreement.
!!!YEM: A copy of the licensing agreement may be found at http://www.music-cog.ohio-state.edu/HumdrumDatabases/Palestrina/license.txt
!!!EMD: converted to Humdrum by Bret Aarden
